X: 1326
T: Leylak Takıvermiş Saçının Tellerine
C: Bahri Altıntaş
O: Turkey
F: http://compmusic.upf.edu/node/140
N: huseyni--turku--aksak--leylak_takivermis--bahri_altintas
N: makam= huseyni
N: form= turku
N: usul= aksak = 9/8
M: 9/8
L: 1/16
K: C _2/4B ^3/4f  
Q: 1/4=252
%%MIDI tuningsystem comma53
g4 g2f2 g2f2 g2^2/4f2 {g}e2 | ed e=fe2 d2c2 B2AB cde^3/4f  | 
w:  ARANAĞME  |   | 
g4 g2f2 g2f2 a2g2 ^1/4f2 | ed e=fe2 d2c2 d2e4z2  | \
w:   |   | 
d2e4a2 g2f2 g2e2 d2 | 
w:   | 
c2 d4 e2c2 B2c4z2  | e2d2 e2c2 c2B2 B4 A2 | \
w:   |   | 
A6 G2cB ABA4G2  | 
w:   | 
g4 g2f2 g2f2 g2^2/4f2 {g}e2 | ed e=fe2 d2c2 B2AB cde^3/4f  | 
w:  ARANAĞME  |   | 
g4 g2f2 g2f2 a2g2 ^1/4f2 | ed e=fe2 d2c2 d2e4z2  | \
w:   |   | 
d2e4a2 g2f2 g2e2 d2 | 
w:   | 
c2 d4 e2c2 B2c4z2  | e2d2 e2c2 c2B2 B4 A2 | \
w:   |   | 
A6 G2cB ABA4G2  | 
w:   | 
A4 e4 e2g2 ^2/4f3e d2 | e4e2 e2e8z2  | \
w:  Ley lak  ta kı ver  |  miş  sa çı nın   | 
g4 g2g2 g4 f2e2 d2 | g18  | =b2a2 a2g2 g2f2 g2f2 e2 | 
w:  tel le ri ne   |  hey    |  sa çı nın  *  tel *  le ri ne   | 
e6 d2c2 B2A4z2  | A4 e4 e2g2 ^2/4f3e d2 | \
w:  hey   SAZ  |  Ley lak  ta kı ver  | 
e4e2 e2e8z2  | g4 g2g2 g4 f2e2 d2 | 
w:  miş  sa çı nın   |  tel le ri ne   | 
g18  | =b2a2 a2g2 g2f2 g2f2 e2 | e6 d2c2 d2e4z2  | \
w:  hey    |  sa çı nın  *  tel *  le ri ne   |  hey   SAZ  | 
g4 e2d2 e2d2 d4 c2 | 
w:  Çap kın  *  kı na  yak  | 
d3cd2 e2c2 B2c4z2  | e2d2 d2e2 c2B2 B4 A2 | e18  | \
w:  mış  *  mi ni cik   |  el *  le ri ne   |  hey    | 
g2^2/4f2 e2d2 c2B2 c2B2 A2 | 
w:  mi ni cik  *  el *  le ri ne   | 
A6 d2c2 d2e4z2  | g4 e2d2 e2d2 d4 c2 | \
w:  hey   SAZ  |  Çap kın  *  kı na  yak  | 
d3cd2 e2c2 B2c4z2  | 
w:  mış  *  mi ni cik   | 
e2d2 d2e2 c2B2 B4 A2 | e18  | g2^2/4f2 e2d2 c2B2 c2B2 A2 | \
w:  el *  le ri ne   |  hey    |  mi ni cik  *  el *  le ri ne   | 
A6 g2g^f efg4z2  | 
w:  hey   SAZ  | 
g4 g4 g2g2 g4 ^f2 | =b2 a2a2 g2^f2 g2e4d2  | \
w:  On  beş  ke re  dal  |  lar *  da  ba har  | 
g4 g2g2 g4 ^f2e2 d2 | 
w:  lar  ya şa mış   | 
g18  | =b2a4g2 g2f2 g2^2/4f2 e2 | e6 g2gf efg4z2  | \
w:  hey    |  ba har *  lar  *  ya şa mış   |  hey   SAZ  | 
g4 g4 g2g2 g4 ^f2 | 
w:  On  beş  ke re  dal  | 
=b2 a2a2 g2^f2 g2e4d2  | g4 g2g2 g4 ^f2e2 d2 | g18  | \
w:  lar *  da  ba har  |  lar  ya şa mış   |  hey    | 
=b2a4g2 g2f2 g2^2/4f2 e2 | 
w:  ba har *  lar  *  ya şa mış   | 
e6 d2c2 d2e4z2  | g4 e2d2 e2d2 d4 c2 | \
w:  hey   SAZ  |  Çap kın  *  kı na  yak  | 
d3cd2 e2c2 B2c4z2  | 
w:  mış  *  mi ni cik   | 
e2d2 d2e2 c2B2 B4 A2 | e18  | g2^2/4f2 e2d2 c2B2 c2B2 A2 | \
w:  el *  le ri ne   |  hey    |  mi ni cik  *  el *  le ri ne   | 
A6 d2c2 d2e4z2  | 
w:  hey   SAZ  | 
g4 e2d2 e2d2 d4 c2 | d3cd2 e2c2 B2c4z2  | \
w:  Çap kın  *  kı na  yak  |  mış  *  mi ni cik   | 
e2d2 d2e2 c2B2 B4 A2 | 
w:  el *  le ri ne   | 
e18  | g2^2/4f2 e2d2 c2B2 c2B2 A2 | A6 G2cB ABA4z2  | |


